X: 592
M:6/4
L:1/4
K:D
d | faAdfd | B2ge2d | Be2a2f | dBgecA | FAdAaf | d2AD2 ||

